X:558
%%etbk:tnset id:294,pos:1,rep:3x,ant:D D D G | G G A | D D G A | A A A || bm bm bm D | D D D | em em D D | D D
%%etbk:pldat 2014-03-05T18:39,2014-03-03T18:06,2014-03-02T14:50,2014-03-01T14:48,2014-02-25T18:39
T:Rigs of Rye, The
M:4/4
L:1/8
K:Dmaj
R:song
 "D"D D -DE DA,-A,2|z2-A,2 "G"B,>A,G,2|"em"-G,2A,"A"D2E| "D"D4E2F2|
"G"G3FG"A"E4|z2A2A2GA|"bm"F4D3F|-F2EF "D"D2z4|A,2"em"B,2A,B,G,2|"A"G,A,-A,2z4|"D"A,4D4|-D8


